FINK
CUT[AUF MUNTRE BRUEDER]
REG[Europa, Mitteleuropa, Deutschland]
KEY[F0813  16  G 2/4]
MEL[  1__1_.1  3_1_1_3_
    5__2_.2  3__0__
    2__3_.4#  5__-7_-7_
    2_1_-6_-7_  -5__0__
    2__-5_.-5  3__1_1_
    4__3_.3  2__0__
    3__4_5_  6__4_2_
    3__2_.2  1__0__
    2__-5_.-5  3__1_1_
    4__3_.3  2__0__
    3__4_5_  6__4_2_
    3__2_.2  1__0__ //] >>
FCT[Geselligkeits -, Trink -, Moral - Lied]
